src/lib/packages/icons/src/assets/line/envelope-notification.svg

<svg xmlns="http://www.w3.org/2000/svg" width="24" height="24" fill="none"><path fill="currentColor" d="M20 8.75A2.753 2.753 0 0 1 17.25 6 2.753 2.753 0 0 1 20 3.25 2.753 2.753 0 0 1 22.75 6 2.753 2.753 0 0 1 20 8.75Zm0-4c-.689 0-1.25.561-1.25 1.25s.561 1.25 1.25 1.25 1.25-.561 1.25-1.25-.561-1.25-1.25-1.25ZM21.75 17v-5a.75.75 0 0 0-1.5 0v5c0 1.577-.673 2.25-2.25 2.25H6c-1.577 0-2.25-.673-2.25-2.25V8c0-1.577.673-2.25 2.25-2.25h8a.75.75 0 0 0 0-1.5H6C3.582 4.25 2.25 5.582 2.25 8v9c0 2.418 1.332 3.75 3.75 3.75h12c2.418 0 3.75-1.332 3.75-3.75Zm-8.656-2.914 4.375-3.5a.75.75 0 1 0-.938-1.171l-4.375 3.5a.25.25 0 0 1-.312 0l-4.375-3.5a.751.751 0 0 0-.938 1.171l4.375 3.5a1.745 1.745 0 0 0 2.188 0Z"/></svg>

<svg width="24" height="24" viewBox="0 0 24 24" fill="none" xmlns="http://www.w3.org/2000/svg">
<path d="M20 8.75C18.483 8.75 17.25 7.516 17.25 6C17.25 4.484 18.483 3.25 20 3.25C21.517 3.25 22.75 4.484 22.75 6C22.75 7.516 21.517 8.75 20 8.75ZM20 4.75C19.311 4.75 18.75 5.311 18.75 6C18.75 6.689 19.311 7.25 20 7.25C20.689 7.25 21.25 6.689 21.25 6C21.25 5.311 20.689 4.75 20 4.75ZM21.75 17V12C21.75 11.586 21.414 11.25 21 11.25C20.586 11.25 20.25 11.586 20.25 12V17C20.25 18.577 19.577 19.25 18 19.25H6C4.423 19.25 3.75 18.577 3.75 17V8C3.75 6.423 4.423 5.75 6 5.75H14C14.414 5.75 14.75 5.414 14.75 5C14.75 4.586 14.414 4.25 14 4.25H6C3.582 4.25 2.25 5.582 2.25 8V17C2.25 19.418 3.582 20.75 6 20.75H18C20.418 20.75 21.75 19.418 21.75 17ZM13.094 14.086L17.469 10.586C17.792 10.327 17.8449 9.855 17.5859 9.532C17.3269 9.208 16.855 9.15699 16.531 9.41499L12.156 12.915C12.066 12.988 11.933 12.988 11.844 12.915L7.46899 9.41499C7.14599 9.15699 6.67506 9.208 6.41406 9.532C6.15506 9.855 6.20801 10.327 6.53101 10.586L10.906 14.086C11.228 14.344 11.614 14.472 12 14.472C12.386 14.472 12.771 14.344 13.094 14.086Z" fill="currentColor"/>
</svg>
